**kern	**kern	**dynam
*part1	*part1	*part1
*staff2	*staff1	*
*I"Piano	*	*
*clefF4	*clefG2	*
*k[f#c#g#]	*k[f#c#g#]	*
=1	=1	=1
4.c#	4.a 4.ee	.
8A	8a	.
=	=	=
(4G# 4A 4e	([4a 4ee	.
8F#L) 8A 8d#X	8aL]) 8dd#X	.
8EJ 8A 8c#	8aJ 8cc#	.
=	=	=
4.D#X 4.B	4.f# 4.a 4.b	.
8Dn 8G#	8e 8b 8ee	.
=	=	=
8C# 8A	8e 8a 8cc#	.
8r	(8g#L	p
4r	8a	.
.	8e#XJ	.
=	=	=
8r	8f#L	.
8r	8c#	.
8r	8dJ)	.
8E 8c#	8f# 8a#X	.
=	=	=
8D 8B	8f# 8b	f
8r	8r	.
8EE 8E	8B 8d 8g#	.
8r	8r	.
=	=	=
8AAA 8AA	8A 8c# 8a	.
8r	8r	.
4r	4r	.
==	==	==
*-	*-	*-
!!!system-decoration: {(s1,s2)}
